images/key_features_1.svg

<svg width="90" height="90" viewBox="0 0 90 90" fill="none" xmlns="http://www.w3.org/2000/svg">
<path d="M76.4609 63.0113C73.4019 63.0091 70.4338 64.0523 68.0482 65.9681L58.7169 56.6315C61.275 53.6051 62.7575 49.8152 62.9322 45.8555L81.2801 45.1688C81.6664 46.162 82.3914 46.9866 83.3267 47.4966C84.262 48.0065 85.3475 48.1691 86.3911 47.9555C87.4347 47.7419 88.3691 47.1658 89.0292 46.3293C89.6892 45.4927 90.0322 44.4496 89.9976 43.3843C89.963 42.3191 89.553 41.3004 88.8401 40.5085C88.1272 39.7166 87.1573 39.2025 86.1021 39.0571C85.0468 38.9118 83.9742 39.1445 83.0739 39.7142C82.1736 40.2839 81.5037 41.1538 81.1827 42.17L62.8318 42.8492C62.5213 40.2679 61.6549 37.7848 60.2923 35.571C58.9296 33.3572 57.1032 31.4656 54.9391 30.0266L59.2668 22.1519C61.0471 22.7071 62.9701 22.5808 64.6627 21.7976C66.3552 21.0144 67.6967 19.6302 68.4269 17.9133C69.1572 16.1965 69.224 14.2694 68.6146 12.506C68.0051 10.7426 66.7628 9.2686 65.1286 8.36984C63.4944 7.47108 61.5849 7.21168 59.7703 7.64196C57.9558 8.07224 56.3657 9.16152 55.3084 10.6985C54.2511 12.2355 53.8021 14.1106 54.0484 15.9601C54.2947 17.8096 55.2188 19.5016 56.6414 20.708L52.3107 28.5872C49.2233 27.2035 45.8075 26.7226 42.4584 27.2002C39.1093 27.6778 35.9638 29.0944 33.3858 31.2861L24.0545 21.948C26.2094 19.25 27.25 15.8287 26.9625 12.387C26.675 8.94524 25.0813 5.74429 22.5087 3.44159C19.9361 1.13889 16.5799 -0.0907561 13.1294 0.00522404C9.67896 0.101204 6.39622 1.51552 3.95544 3.95768C1.51466 6.39984 0.101147 9.68444 0.00522108 13.1368C-0.0907048 16.5892 1.13824 19.9473 3.43964 22.5214C5.74104 25.0955 8.94018 26.6901 12.38 26.9778C15.8198 27.2654 19.2391 26.2242 21.9356 24.0681L31.2669 33.4062C28.5145 36.6484 27.0053 40.7649 27.0096 45.0188C27.0139 46.0957 27.1142 47.17 27.3093 48.229L11.2196 52.5637C10.4938 51.3129 9.33804 50.369 7.96788 49.9081C6.59771 49.4473 5.10677 49.5009 3.77323 50.0591C2.4397 50.6172 1.35466 51.6418 0.720571 52.9415C0.0864804 54.2413 -0.0533502 55.7274 0.327169 57.1228C0.707688 58.5181 1.58256 59.7272 2.78856 60.5246C3.99456 61.322 5.4493 61.6531 6.88135 61.4562C8.3134 61.2593 9.62495 60.5478 10.5713 59.4545C11.5176 58.3612 12.0341 56.9607 12.0243 55.5144C12.0243 55.4934 12.0243 55.4754 12.0243 55.4545L28.1005 51.1243C29.4942 54.9751 32.1576 58.2359 35.6516 60.3694L31.138 69.4001C28.9715 68.7289 26.6321 68.8968 24.5835 69.8705C22.5349 70.8442 20.9269 72.5527 20.0782 74.657C19.2296 76.7614 19.2022 79.1081 20.0017 81.2316C20.8012 83.3552 22.369 85.1007 24.3944 86.1219C26.4197 87.143 28.7546 87.3654 30.9361 86.7448C33.1176 86.1243 34.9864 84.7061 36.1719 82.7715C37.3574 80.837 37.773 78.5273 37.3363 76.3005C36.8996 74.0737 35.6426 72.0925 33.8144 70.7496L38.3279 61.7188C41.3564 62.937 44.6598 63.3044 47.8817 62.7815C51.1036 62.2585 54.1216 60.8651 56.6099 58.7516L65.9412 68.0882C64.0347 70.4785 62.9961 73.4458 62.9958 76.504C62.9954 79.5622 64.0332 82.5298 65.9392 84.9205C67.8452 87.3113 70.5062 88.9834 73.4863 89.6628C76.4664 90.3422 79.5887 89.9886 82.3417 88.66C85.0946 87.3314 87.3149 85.1066 88.6387 82.3501C89.9624 79.5936 90.3112 76.469 89.6277 73.4882C88.9443 70.5075 87.2692 67.8474 84.877 65.9439C82.4848 64.0404 79.5173 63.0064 76.4609 63.0113ZM21.0155 21.0289H6.03023C6.03023 19.0406 6.81962 17.1337 8.22476 15.7278C9.6299 14.3218 11.5357 13.532 13.5228 13.532C12.6337 13.532 11.7645 13.2682 11.0252 12.7739C10.2859 12.2797 9.70974 11.5772 9.36948 10.7552C9.02922 9.93331 8.94019 9.02889 9.11366 8.15634C9.28712 7.28379 9.71528 6.48231 10.344 5.85323C10.9727 5.22416 11.7738 4.79576 12.6458 4.6222C13.5179 4.44863 14.4218 4.53771 15.2432 4.87816C16.0647 5.21862 16.7668 5.79515 17.2608 6.53486C17.7548 7.27457 18.0184 8.14424 18.0184 9.03388C18.0184 10.2269 17.5448 11.371 16.7017 12.2145C15.8586 13.0581 14.7151 13.532 13.5228 13.532C15.51 13.532 17.4158 14.3218 18.8209 15.7278C20.2261 17.1337 21.0155 19.0406 21.0155 21.0289ZM44.9919 33.0238C46.1774 33.0238 47.3363 33.3756 48.322 34.0346C49.3077 34.6936 50.076 35.6303 50.5297 36.7262C50.9834 37.8221 51.1021 39.028 50.8708 40.1914C50.6395 41.3548 50.0686 42.4234 49.2303 43.2622C48.392 44.101 47.324 44.6722 46.1613 44.9036C44.9985 45.135 43.7933 45.0162 42.698 44.5623C41.6027 44.1084 40.6666 43.3396 40.008 42.3534C39.3493 41.3671 38.9978 40.2075 38.9978 39.0213C38.9978 37.4307 39.6293 35.9052 40.7534 34.7805C41.8775 33.6557 43.4021 33.0238 44.9919 33.0238ZM36.0007 55.5144C36.0007 53.1285 36.948 50.8403 38.6342 49.1531C40.3203 47.466 42.6073 46.5182 44.9919 46.5182C47.3765 46.5182 49.6634 47.466 51.3496 49.1531C53.0357 50.8403 53.983 53.1285 53.983 55.5144H36.0007ZM68.9683 84.0025C68.9683 82.0142 69.7577 80.1074 71.1628 78.7014C72.5679 77.2955 74.4737 76.5056 76.4609 76.5056C75.5717 76.5056 74.7026 76.2418 73.9633 75.7476C73.224 75.2533 72.6478 74.5508 72.3075 73.7289C71.9673 72.907 71.8782 72.0025 72.0517 71.13C72.2252 70.2574 72.6533 69.456 73.282 68.8269C73.9108 68.1978 74.7118 67.7694 75.5838 67.5958C76.4559 67.4223 77.3598 67.5114 78.1813 67.8518C79.0027 68.1923 79.7048 68.7688 80.1988 69.5085C80.6928 70.2482 80.9565 71.1179 80.9565 72.0075C80.9565 73.2005 80.4828 74.3446 79.6397 75.1882C78.7966 76.0317 77.6532 76.5056 76.4609 76.5056C78.448 76.5056 80.3538 77.2955 81.759 78.7014C83.1641 80.1074 83.9535 82.0142 83.9535 84.0025H68.9683Z" fill="url(#paint0_linear)"/>
<defs>
<linearGradient id="paint0_linear" x1="-3.74026" y1="0" x2="91.4524" y2="-15.1299" gradientUnits="userSpaceOnUse">
<stop stop-color="#9BEFD7"/>
<stop offset="0.251208" stop-color="#8BF7AB"/>
<stop offset="1" stop-color="#FFDF8A"/>
</linearGradient>
</defs>
</svg>

<svg xmlns="http://www.w3.org/2000/svg" width="90" height="90" fill="none" xmlns:v="https://vecta.io/nano"><path d="M76.461 63.011a13.42 13.42 0 0 0-8.413 2.957l-9.331-9.337c2.558-3.026 4.041-6.816 4.215-10.776l18.348-.687c.386.993 1.111 1.818 2.047 2.328a4.51 4.51 0 0 0 3.064.459c1.044-.214 1.978-.79 2.638-1.626a4.52 4.52 0 0 0-.189-5.821c-.713-.792-1.683-1.306-2.738-1.451a4.51 4.51 0 0 0-3.028.657c-.9.57-1.57 1.44-1.891 2.456l-18.351.679a17.98 17.98 0 0 0-2.54-7.278 17.97 17.97 0 0 0-5.353-5.544l4.328-7.875a7.52 7.52 0 0 0 5.396-.354c1.692-.783 3.034-2.167 3.764-3.884a7.53 7.53 0 0 0 .188-5.407c-.609-1.763-1.852-3.237-3.486-4.136a7.52 7.52 0 0 0-5.358-.728c-1.814.43-3.405 1.52-4.462 3.057a7.53 7.53 0 0 0 1.333 10.01l-4.331 7.879a17.91 17.91 0 0 0-18.925 2.699l-9.331-9.338a13.52 13.52 0 0 0 2.908-9.561c-.287-3.442-1.881-6.643-4.454-8.945A13.5 13.5 0 0 0 13.129.005a13.5 13.5 0 0 0-9.174 3.952C1.515 6.4.101 9.684.005 13.137s1.133 6.81 3.434 9.385a13.5 13.5 0 0 0 18.496 1.547l9.331 9.338c-2.752 3.242-4.262 7.359-4.257 11.613.004 1.077.105 2.151.3 3.21l-16.09 4.335c-.726-1.251-1.882-2.195-3.252-2.656a5.95 5.95 0 0 0-4.195.151c-1.334.558-2.419 1.583-3.053 2.882a5.96 5.96 0 0 0-.393 4.181c.381 1.395 1.255 2.604 2.461 3.402a5.95 5.95 0 0 0 4.093.932c1.432-.197 2.744-.908 3.69-2.002a5.96 5.96 0 0 0 1.453-3.94v-.06l16.076-4.33c1.394 3.851 4.057 7.112 7.551 9.245L31.138 69.4a9.04 9.04 0 0 0-6.555.47c-2.049.974-3.657 2.682-4.505 4.786a9.05 9.05 0 0 0-.076 6.575c.8 2.124 2.367 3.869 4.393 4.89a9.04 9.04 0 0 0 11.778-3.35 9.05 9.05 0 0 0-2.358-12.022l4.514-9.031a17.91 17.91 0 0 0 9.554 1.063c3.222-.523 6.24-1.916 8.728-4.03l9.331 9.337a13.5 13.5 0 0 0-.002 16.832c1.906 2.391 4.567 4.063 7.547 4.742a13.48 13.48 0 0 0 8.855-1.003 13.49 13.49 0 0 0 6.297-6.31 13.5 13.5 0 0 0 .989-8.862c-.683-2.981-2.359-5.641-4.751-7.544a13.48 13.48 0 0 0-8.416-2.933zM21.016 21.029H6.03a7.5 7.5 0 0 1 2.195-5.301 7.49 7.49 0 0 1 5.298-2.196c-.889 0-1.758-.264-2.498-.758s-1.315-1.197-1.656-2.019a4.5 4.5 0 0 1 .975-4.902c.629-.629 1.43-1.057 2.302-1.231s1.776-.084 2.597.256 1.524.917 2.018 1.657a4.5 4.5 0 0 1-.559 5.68c-.843.844-1.987 1.318-3.179 1.318a7.49 7.49 0 0 1 5.298 2.196 7.5 7.5 0 0 1 2.195 5.301zm23.976 11.995a5.99 5.99 0 0 1 3.33 1.011c.986.659 1.754 1.596 2.208 2.692a6 6 0 0 1-1.299 6.536c-.838.839-1.906 1.41-3.069 1.641a5.99 5.99 0 0 1-3.463-.341c-1.095-.454-2.031-1.223-2.69-2.209a6 6 0 0 1 .745-7.573 5.99 5.99 0 0 1 4.239-1.757zm-8.991 22.491a9 9 0 0 1 2.633-6.361 8.99 8.99 0 0 1 12.715 0 9 9 0 0 1 2.633 6.361H36.001zm32.968 28.488a7.5 7.5 0 0 1 2.195-5.301 7.49 7.49 0 0 1 5.298-2.196c-.889 0-1.758-.264-2.498-.758a4.5 4.5 0 0 1-1.912-4.618 4.5 4.5 0 0 1 1.23-2.303c.629-.629 1.43-1.057 2.302-1.231s1.776-.084 2.597.256 1.524.917 2.018 1.657a4.5 4.5 0 0 1-.559 5.68c-.843.844-1.987 1.317-3.179 1.317a7.49 7.49 0 0 1 5.298 2.196 7.5 7.5 0 0 1 2.195 5.301H68.968z" fill="url(#A)"/><defs><linearGradient id="A" x1="-3.74" y1="0" x2="91.452" y2="-15.13" gradientUnits="userSpaceOnUse"><stop stop-color="#9befd7"/><stop offset=".251" stop-color="#8bf7ab"/><stop offset="1" stop-color="#ffdf8a"/></linearGradient></defs></svg>
